images/quality/quality-control-icon.svg

<svg width="50" height="70" viewBox="0 0 50 70" fill="none" xmlns="http://www.w3.org/2000/svg">
<path d="M26.7032 27.4587C28.453 27.4587 29.8715 26.0402 29.8715 24.2904C29.8715 22.5406 28.453 21.1221 26.7032 21.1221C24.9534 21.1221 23.5349 22.5406 23.5349 24.2904C23.5349 26.0402 24.9534 27.4587 26.7032 27.4587Z" fill="url(#paint0_linear)"/>
<path d="M29.3434 5.28052C30.8016 5.28052 31.9836 4.09844 31.9836 2.64026C31.9836 1.18208 30.8016 0 29.3434 0C27.8852 0 26.7031 1.18208 26.7031 2.64026C26.7031 4.09844 27.8852 5.28052 29.3434 5.28052Z" fill="url(#paint1_linear)"/>
<path d="M19.8385 12.6732C21.8799 12.6732 23.5348 11.0183 23.5348 8.97688C23.5348 6.93544 21.8799 5.28052 19.8385 5.28052C17.797 5.28052 16.1421 6.93544 16.1421 8.97688C16.1421 11.0183 17.797 12.6732 19.8385 12.6732Z" fill="url(#paint2_linear)"/>
<path fill-rule="evenodd" clip-rule="evenodd" d="M36.4231 10.0286H34.2648H32.7648H16.687H15.187H13.0233C12.1949 10.0286 11.5233 10.7001 11.5233 11.5286C11.5233 12.357 12.1949 13.0286 13.0233 13.0286H15.187V30.2481C6.26888 33.9779 0 42.7849 0 53.0641C0 59.0168 2.10572 64.4814 5.61467 68.7509L6.06472 69.2985H6.77352H42.6735H43.3823L43.8323 68.7509C47.3413 64.4814 49.447 59.0168 49.447 53.0641C49.447 42.7898 43.1829 33.9828 34.2648 30.2529V13.0286H36.4231C37.2515 13.0286 37.9231 12.357 37.9231 11.5286C37.9231 10.7001 37.2515 10.0286 36.4231 10.0286ZM18.187 31.2697V13.0286H31.2648V31.2745V32.3202L32.246 32.6819C38.3455 34.9303 43.1536 39.837 45.2713 45.9951H4.17557C6.29404 39.8339 11.1052 34.926 17.2058 32.6772L18.187 32.3155V31.2697ZM3.38026 48.9951C3.13062 50.3132 3 51.6734 3 53.0641C3 58.0456 4.67504 62.6319 7.49681 66.2985H41.9502C44.772 62.6319 46.447 58.0456 46.447 53.0641C46.447 51.6734 46.3164 50.3132 46.0667 48.9951H3.38026Z" fill="url(#paint3_linear)"/>
<defs>
<linearGradient id="paint0_linear" x1="26.7032" y1="21.1221" x2="26.7032" y2="27.4587" gradientUnits="userSpaceOnUse">
<stop stop-color="#AD844C"/>
<stop offset="0.3125" stop-color="#BDA180"/>
<stop offset="1" stop-color="#AD844C"/>
</linearGradient>
<linearGradient id="paint1_linear" x1="29.3434" y1="0" x2="29.3434" y2="5.28052" gradientUnits="userSpaceOnUse">
<stop stop-color="#AD844C"/>
<stop offset="0.3125" stop-color="#BDA180"/>
<stop offset="1" stop-color="#AD844C"/>
</linearGradient>
<linearGradient id="paint2_linear" x1="19.8385" y1="5.28052" x2="19.8385" y2="12.6732" gradientUnits="userSpaceOnUse">
<stop stop-color="#AD844C"/>
<stop offset="0.3125" stop-color="#BDA180"/>
<stop offset="1" stop-color="#AD844C"/>
</linearGradient>
<linearGradient id="paint3_linear" x1="24.7235" y1="10.0286" x2="24.7235" y2="69.2985" gradientUnits="userSpaceOnUse">
<stop stop-color="#AD844C"/>
<stop offset="0.229167" stop-color="#BDA180"/>
<stop offset="1" stop-color="#AD844C"/>
</linearGradient>
</defs>
</svg>

<svg width="50" height="70" fill="none" xmlns="http://www.w3.org/2000/svg"><path d="M26.703 27.459a3.168 3.168 0 100-6.337 3.168 3.168 0 000 6.337z" fill="url(#paint0_linear)"/><path d="M29.343 5.28a2.64 2.64 0 100-5.28 2.64 2.64 0 000 5.28z" fill="url(#paint1_linear)"/><path d="M19.838 12.673a3.696 3.696 0 100-7.392 3.696 3.696 0 000 7.392z" fill="url(#paint2_linear)"/><path fill-rule="evenodd" clip-rule="evenodd" d="M36.423 10.029h-23.4a1.5 1.5 0 100 3h2.164v17.22C6.269 33.977 0 42.784 0 53.063A24.623 24.623 0 005.615 68.75l.45.547h37.317l.45-.547a24.623 24.623 0 005.615-15.687c0-10.274-6.264-19.081-15.182-22.811V13.029h2.158a1.5 1.5 0 000-3zm-18.236 21.24V13.03h13.078v19.29l.981.362a21.768 21.768 0 0113.025 13.313H4.176a21.775 21.775 0 0113.03-13.318l.981-.361V31.27zM3.38 48.996a21.851 21.851 0 00-.38 4.07c0 4.98 1.675 9.567 4.497 13.234H41.95a21.617 21.617 0 004.497-13.235c0-1.39-.13-2.75-.38-4.069H3.38z" fill="url(#paint3_linear)"/><defs><linearGradient id="paint0_linear" x1="26.703" y1="21.122" x2="26.703" y2="27.459" gradientUnits="userSpaceOnUse"><stop stop-color="#AD844C"/><stop offset=".313" stop-color="#BDA180"/><stop offset="1" stop-color="#AD844C"/></linearGradient><linearGradient id="paint1_linear" x1="29.343" y1="0" x2="29.343" y2="5.281" gradientUnits="userSpaceOnUse"><stop stop-color="#AD844C"/><stop offset=".313" stop-color="#BDA180"/><stop offset="1" stop-color="#AD844C"/></linearGradient><linearGradient id="paint2_linear" x1="19.838" y1="5.281" x2="19.838" y2="12.673" gradientUnits="userSpaceOnUse"><stop stop-color="#AD844C"/><stop offset=".313" stop-color="#BDA180"/><stop offset="1" stop-color="#AD844C"/></linearGradient><linearGradient id="paint3_linear" x1="24.724" y1="10.029" x2="24.724" y2="69.299" gradientUnits="userSpaceOnUse"><stop stop-color="#AD844C"/><stop offset=".229" stop-color="#BDA180"/><stop offset="1" stop-color="#AD844C"/></linearGradient></defs></svg>
